X:9
%%etbk:tnset id:4,pos:1,rep:3x,ant:
%%etbk:wsite http://www.thesession.org/tunes/display/528
%%etbk:video src:ytube,cde:dtpzDOZKMHk,desc:
%%etbk:video src:ytube,cde:xc39PEh3C-s,desc:
%%etbk:skill ?
%%etbk:pldat 2013-11-21T18:00,2013-11-13T17:36,2013-11-04T18:46,2013-10-24T18:59,2013-10-08T15:09,2013-09-01T15:32,2013-05-15T17:28
T: Windy Gap, The
T: Tuttle's
S: http://www.youtube.com/watch?v=dtpzDOZKMHk
Z: Piano Box Version by Martin Fleischmann
H: Created 2013-02-19 /  Last Modified 2013-02-19
M: 4/4
L: 1/8
R: Reel
K: Ddor
!1!A,!3!D!1!DE !3!FEF!4!G|!2!A!4!cGc A!5!d d2|!1!D3E FEF!4!G|!2!A!4!c!1!G!2!E !3!F!1!D!4!E!2!C|
A,DDE FEFG|AAGc !2!A!5!d !3!d!4!e|!5!fded !3!dc!1!A!3!B|1 !4!c!2!A!1!G!2!E !2!E!1!DD2:|2 cAGE EDD2||
|:!5!d2d!3!B !4!c2c!1!G|!2!A!5!ddB !4!c!2!AGA|d2dB !4!cdc!2!A|!1!G!2!E!5!c!2!E !2!E!1!DD2|
d2dB !4!c!3!c!4!cG|Addc !5!d2!3!de|fded dcAB|1 cAGE EDD2:|2 cAGE FDEC||
